X:1
T:Pomp and Circumstance March No. 3
T:Pomp and Circumstance March No. 3
T:Piano Transcription
T:Edward Elgar
T:Arr. by Dekkadeci
C:Edward Elgar
Z:Arr. by Dekkadeci
%%score { ( 1 3 ) | ( 2 4 ) }
L:1/8
Q:1/4=138
M:4/4
K:Eb
V:1 bass nm="Piano" snm="Pno."
V:3 bass 
V:2 bass 
V:4 bass 
V:1
"^Con fuoco"!pp!{C,D,} .[C,E,G,]2 z2{C,D,} .[C,E,G,]2 z2 | %1
{C,D,} .[C,E,G,]2 !>![D,F,B,]2 .[^C,=E,B,]2 .[D,F,A,]2 |{C,D,} .[C,E,G,]2 z2{C,D,} .[C,E,G,]2 z2 | %3
{C,D,} .[C,E,G,]2 !>![E,A,C]2 .[B,,D,B,]2 .[C,E,A,]2 |{D,E,} .[D,F,G,]2 z2{D,E,} .[D,F,G,]2 z2 | %5
{D,E,} .[D,F,G,]2 !>![C,E,B,]2 .[^C,=E,B,]2 .[D,F,A,]2 |{C,D,} .[C,E,G,]2 z2{C,D,} .[C,E,G,]2 z2 | %7
{C,D,} .[C,E,G,]2 .[A,,C,F,]2 .[F,,A,,D,]2 .[D,,F,,B,,]2 | %8
[K:treble]{CD} .[CEG]2 z2{CD} .[CEG]2 z2 |{CD} .[CEG]2 !>![DFB]2 .[^C=EB]2 .[DFA]2 | %10
{CD} .[CEG]2 z2{CD} .[CEG]2 z2 |{CD} .[CEG]2 !>![EAc]2 .[B,DB]2 .[CEA]2 | %12
{DE} .[DFG]2 z2{DE} .[DFG]2 z2 |{DE} .[DFG]2 !>![CEB]2 .[^C=EB]2 .[DFA]2 | %14
{CD} .[CEG]2 z2{CD} .[CEG]2 z2 |{CD} .[CEG]2 .[A,CF]2[K:bass] .[F,A,D]2 .[D,F,B,]2 | %16
!<(!{C,D,} .[C,E,G,]2 z2{C,D,} .[C,E,G,]2 z2 |{C,D,} .[C,E,G,]2 z2{C,D,} .[C,E,G,]2 z2!<)! | %18
[K:treble]!fff!"_vivace" !>![Cc]/[Cc]/[Cc]/ z/ !^![ceac']2 [EGBe]z/(b/ [EGce])z/(g/ | %19
 [FAcf])z/(a/ [FAdf])z/(g/ !>![EGe])!>![FAc]!>![EGB] z | %20
 !>![Ee]/[Ee]/[Ee]/ z/ !^![egc'e']2 [GBdg]z/(d'/ [GBeg])z/(b/ | %21
 [=Ace=a])z/(c'/ [Ac^fa])z/(b/ !>![GBg])!>![Ace]!>![G=Bd] z | %22
 !>![Cc]/[Cc]/[Cc]/ z/ !^![ceac']2 [EGBe]z/(b/ [EGce])z/(g/ | %23
 [FAcf])z/(a/ [FAdf])z/(g/ !>![EGe])!>![FAc]!>![EGB] z | %24
 !>![Ee]/[Ee]/[Ee]/ z/ !^![^d^f=b^d']2 [^F^A^cf]z/(^c'/ [FAdf])z/(^a/ | %25
 [^G=Bd^g])z/(=b/ [GB^eg])z/(^a/ [^F^f]).F !>!=G2 | .[^F^f].F !>!G2 .[Ff].F !>!G2 | %27
 .[^F^f].F!<(! !>!G2- G.^G!<)! =A2- | %28
"_poco allarg."[Q:1/4=136] A.B[Q:1/4=134]!>(! =B2-[Q:1/4=132] B.c[Q:1/4=130](^cd)!>)! | %29
!pp!"_come prima"[Q:1/4=138]!<(! G8- | G2- (3G.G.G G2- (3G.G.G | G8- | %32
 G2- (3G.G.G G2- (3G.G.G!<)! |!mp!!<(! !>!G2- (3G.G.G !>!G2- (3G.G.G | %34
 (3.G.G.G (3.G.G.G (3.G.G.G (3.G.G.G | !>!G2- (3G.G.G !>!G2- (3G.G.G | %36
{CDEF} (3.G.F.E .[Acf]2 .[FAd]2 .[DFB]2!<)! |!ff! !>![ceg]3 z !>![ceg]3 z | %38
 [ceg] z !^![Beb]2 !tenuto![ceb]2 !tenuto![dfa]2 | !>![ceg]3 z !>![ceg]3 z | %40
 [ceg] z !>![eac']2 !>![dfb]2 !>![cea]2 | !>![dfg]3 z !>![dfg]3 z | %42
 [dfg] z !^![Beb]2 !tenuto![ceb]2 !tenuto![dfa]2 | !>![ceg]3 z !>![ceg]3 z | %44
 !>![Acg] z !>![Acf] z !>![FAd] z !>![DAB] z | !>![ceg]3 z !>![ceg]3 z | %46
 !>![Acg]2 !>![Acf]2 !>![FAd]2 !>![DAB]2 | !>![ceg]3 z !>![c=eg]3 z | (!>!g2 f2) !^!d2 !^![DB]2 | %49
 .[CEc] z !>![DAB]2!<(! .[CEc] z !>![DAB]2 | .[CEc] z !>![DAB]2 .[CEc] z !>![DAB]2!<)! | %51
!fff! [CEc]/!8va(!(d'/4e'/4f'/4g'/4a'/4b'/4 c''/)!8va)!!>!e/!>!c/!>!G/ (9:8:9(!>!e/4d/4c/4B/4A/4G/4F/4E/4D/4 !wedge!C) .[cegc'] | %52
 !>!C2 z2 z4 ||[K:Ab]!mf![Q:1/4=120]"^Cantabile"!>(! (E8!>)! |!p! C)z/E/ A6 | %55
!<(! A,z/(C/ F)z/(C/ D)z/(F/!<)!!mp!!>(! B)z/(G/!>)! |!p! E8) | (d8 | %58
!<(! c)z/e/!<)!!mp!!>(! a6!>)! |!p!!<(! Az/(c/ f)z/(c/ =d)z/(f/!<)!!mp! b)z/(g/ |!>(! e8)!>)! | %61
!mp!!>(! (E8!>)! |!p!!<(! C)z/E/!<)!!mp!!>(! A6!>)! |!p!!<(! A,z/(C/ F)z/(C/ D)z/(F/ B)z/(G/!<)! | %64
!mp!!>(! E8)!>)! |!p! (d8 |!<(! c)z/e/!<)!!mp!!>(! a6!>)! | %67
!p! Az/(c/ f)z/(c/ =d)z/!<(!(f/!mp! b)!<)!z/(g/ |!>(! e8)!>)! |!p!!<(! A4 ([Ge]3 G)!<)! | %70
!mf!!>(! F2 (c4 B2)!>)! |!p!!<(! =A4 ([Gg]3!<)!!f! B) |!>(! =A2 (e4!>)!!p! =d2) | Fz/A/ (c4 B2) | %74
 =Dz/F/ (A4 G2) |!<(! (F3 .F) (c3 F)!<)! |!mf! (!>!e2 =d2)!>(! (c2 B2)!>)! |!p!!<(! A4 ([Ge]3 G) | %78
 F2 (c4 B2)!<)! |!f! =A4 ([Gg]3 [G-B]) | [G=A]2 ([Ee]4 [=D=d]2) | Fz/A/ (c4 B2) | =Dz/F/ (A4 G2) | %83
 (F3 .F)!mf! (!>![Fc]3 F) |!>(! (!>!e2 =d2) (c2 B) z!>)! |!p!!>(! (E8!>)! | %86
!pp!!<(! C)z/E/!<)!!mp!!>(! A6!>)! |!p!!<(! A,z/(C/ F)z/(C/ D)z/(F/!<)!!mp! B)z/!>(!(G/!>)! | %88
!p! E8) | (d8 |!<(! c)z/e/!<)!!mp!!>(! a6!>)! |!p! Bz/(d/ f)z/(A/ G)z/(B/ d)z/(F/ | %92
"_accel." !tenuto![=B,FG]2)[Q:1/4=122]"^(.25)" z2[Q:1/4=124]"^(.5)" !tenuto![B,FG]2[Q:1/4=126]"^(.75)" z2 | %93
[Q:1/4=129]!<(! !tenuto![=B,FG]2!<)![Q:1/4=131]"^(.25)"!mp! .[CEB]2[Q:1/4=133]"^(.5)"!>(! .[D=EB]2[Q:1/4=135]"^(.75)" .[=DFA]2!>)! || %94
[K:Eb][Q:1/4=138]"^Tempo I"!pp!{CD} .[CEG]2 z2{CD} .[CEG]2 z2 | %95
{CD} .[CEG]2 !>![DFB]2 .[^C=EB]2 .[DFA]2 |{CD} .[CEG]2 z2{CD} .[CEG]2 z2 | %97
{CD} .[CEG]2 !>![EAc]2 .[B,DB]2 .[CEA]2 |{DE} .[DFG]2 z2{DE} .[DFG]2 z2 | %99
{DE} .[DFG]2 !>![CEB]2 .[^C=EB]2 .[DFA]2 |{CD} .[CEG]2 z2{CD} .[CEG]2 z2 | %101
{CD} .[CEG]2 .[A,CF]2[K:bass] .[F,A,D]2 .[D,F,B,]2 |!<(!{C,D,} .[C,E,G,]2 z2{C,D,} .[C,E,G,]2 z2 | %103
{C,D,} .[C,E,G,]2 z2{C,D,} .[C,E,G,]2 z2!<)! | %104
[K:treble]!fff!"_vivace" !>![Cc]/[Cc]/[Cc]/ z/ !^![ceac']2 [EGBe]z/(b/ [EGce])z/(g/ | %105
 [FAcf])z/(a/ [FAdf])z/(g/ !>![EGe])!>![FAc]!>![EGB] z | %106
 !>![Ee]/[Ee]/[Ee]/ z/ !^![egc'e']2 [GBdg]z/(d'/ [GBeg])z/(b/ | %107
 [=Ace=a])z/(c'/ [Ac^fa])z/(b/ !>![GBg])!>![Ace]!>![G=Bd] z | %108
 !>![Cc]/[Cc]/[Cc]/ z/ !^![ceac']2 [EGBe]z/(b/ [EGce])z/(g/ | %109
 [FAcf])z/(a/ [FAdf])z/(g/ !>![EGe])!>![FAc]!>![EGB] z | %110
 !>![Ee]/[Ee]/[Ee]/ z/ !^![^d^f=b^d']2 [^F^A^cf]z/(^c'/ [FAdf])z/(^a/ | %111
 [^G=Bd^g])z/(=b/ [GB^eg])z/(^a/ [^F^f]).F !>!=G2 | .[^F^f].F !>!G2 .[Ff].F !>!G2 | %113
 .[^F^f].F!<(! !>!G2- G.^G!<)! =A2- | %114
"_poco allarg."[Q:1/4=136] A.B[Q:1/4=134]!>(! =B2-[Q:1/4=132] B.c[Q:1/4=130](^cd)!>)! | %115
"_a tempo"!p![Q:1/4=138]!<(! z2 (6:4:6(B,/=B,/C/D/E/F/) (6:4:6(G/=A/=B/A/B/c/ (6:4:6d/e/f/g/!courtesy!_a/!courtesy!_b/) | %116
!8va(! (6:4:6(c'/d'/e'/f'/g'/a'/ .b')!8va)! z z4 | %117
 z2 (6:4:6(B,/=B,/C/D/E/F/) (6:4:6(G/=A/=B/A/B/c/ (6:4:6d/e/f/g/!courtesy!_a/!courtesy!_b/) | %118
!8va(! (7:4:7(c'/d'/e'/f'/g'/a'/b'/ .c'')!8va)! z z4!<)! |!mp!!<(! !>!G2- (3G.G.G !>!G2- (3G.G.G | %120
 (3.G.G.G (3.G.G.G (3.G.G.G (3.G.G.G | !>!G2- (3G.G.G !>!G2- (3G.G.G | %122
{CDEF} (3.G.F.E .[cfg] z/ (d/8e/8f/8g/8 .[dfa]) z/ (3(f/4g/4a/4 .[dfb]) z!<)! | %123
!fff! !>![ceg]3 z !>![ceg]3 z | [ceg] z !^![Beb]2 !tenuto![ceb]2 !tenuto![dfa]2 | %125
 !>![ceg]3 z !>![ceg]3 z | [ceg] z !>![eac']2 !>![dfb]2 !>![cea]2 | !>![dfg]3 z !>![dfg]3 z | %128
 [dfg] z !^![Beb]2 !tenuto![ceb]2 !tenuto![dfa]2 | !>![ceg]3 z !>![ceg]3 z | %130
 !>![Acg] z !>![Acf] z !>![FAd] z !>![DAB] z | !>![ceg]3 z !>![ceg]3 z | %132
 !>![Acg]2 !>![Acf]2 !>![FAd]2 !>![DAB]2 | !>![ceg]3 z !>![c=eg]3 z | (!>!g2 f2) !^!d2 !^![DB]2 | %135
!>(! .[CEc] z!>)!!f! !>![DAB]2 .[CEc] z !>![DAB]2 | .[EGe] z !>![Fcd]2 .[EGe] z !>![Fcd]2 | %137
 .[G=Bg] z !>![=Aef]2!<(! .[GBg] z !>![Aef]2 | .[G=Bg] z !>![=Aef]2 .[GBg] z !>![Aef]2!<)! | %139
!ff! [G=Bg]/!8va(!(=a'/4=b'/4c''/4d''/4e''/4f''/4 g''/)!8va)!!>!d/!>!B/!>!G/ (9:8:9(!>!B/4=A/4G/4^F/4=E/4D/4C/4=B,/4=A,/4 G,) .[Bg] || %140
[K:C][Q:1/4=120]"^Grandioso" z2 .B2 .c2 .d2 | e>.g c'6 | cz/(e/ a)z/(e/ f)z/(a/ d')z/(b/ | g8) | %144
 !^!f8 | e>.g c'6 | cz/(e/ a)z/(e/ ^f)z/(a/ d')z/(b/ | g8) |!ff! [Cc]4 (!>![Gg]3 [B,B]) | %149
!<(! ([A,CA]2!<)!!fff!!>(! [Ee]4 [Dd]2)!>)! |!ff! [^CE^c]4 (!>![Gdb]3 [DGd]) | %151
!<(! ([^CEG^c]2!<)!!fff!!>(! [Gg]4 [^F^f]2)!>)! |!ff! Az/c/ (!>!e4 d2) | ^Fz/A/ (!>!c4 B2) | %154
 !tenuto!A3!<(! .A ([G-Ae]3 [GA])!<)! |!fff! ([GAg]2 [^F^f]2) (!>!e2 d) z | %156
!ff! !>!G2 !>![Bgb]2 !>![cgc']2 !>![dgd']2 | Ez/G/ !>!c2!8va(! [gc'g']2 [ec'e']2!8va)! | %158
"_(allarg.)"{G,A,B,} Cz/(E/ [EA])z/(E/ !tenuto!F)!tenuto!A !tenuto!d>.B |[K:bass]"_a tempo" G7 z | %160
 !^!F8 |[K:treble] Ez/G/!>(! !^!c6!>)! || %162
[K:Eb][Q:1/4=138]"^Tempo I – Con fuoco"!mf! !tenuto![DAcd]3 z !tenuto![DAcd]3 z | %163
 [DAcd] z .[FAcf]2 .[FAcf]2 .[EAce]2 | %164
 [DAcd]2!<(!!8va(! (6:4:6(!>!c''/b'/a'/g'/f'/e'/ d')!8va)! z (6:4:6(!>!c/B/A/G/F/E/) | %165
 [DAcd] z .[FAcf]2 .[EAce]2 .[DAcd]2!<)! |!f!!<(! !tenuto![EAce]3 z !tenuto![EAce]3 z | %167
 [EAce] z .[_GAc_g]2 .[GAcg]2 .[FAcf]2 | %168
 [EAce]2!8va(! (!>!e''/_d''/4c''/4b'/4a'/4_g'/4f'/4 e')!8va)! z (!>!e/_d/4c/4B/4A/4_G/4F/4) | %169
 [EAce] z .[_GAc_g]2 .[FAcf]2 .[EAce]2!<)! | %170
!ff! !>![Cc]/[Cc]/[Cc] !^![c=ec']2 [Cc]z/(g/ [Cc])z/(e/ | %171
 [Dd])z/(f/ [D=Bd])z/(=e/ .[Cc]).=E !tenuto!G2 | %172
 !>![Cc]/[Cc]/[Cc] !^![c=ec']2 [Cc]z/(g/ [Cc])z/(e/ | %173
 [Dd])z/(f/ [D=Bd])z/(=e/ .[Cc]).=E !tenuto![DFG]2 | %174
"_animato" !>![c=eg]2 (3.[Bf].[Bf].[Bf] [=Bf] z [_Bc] z |!<(! (f>.a) c'6!<)! | %176
!ff! [FAcd]z/(f/ [Aca])z/(c/ [F=B])z/(d/ [Gg])z/(B/ | %177
 !>![c=eg]2) (3.[Bf].[Bf].[Bf] [=Bf] z [_Bc] z |!<(! (f>.a) c'6!<)! | %179
!ff! [FAcd]z/(f/ [Aca])z/(c/ [F=B])z/(d/ !^![Gg]2) | %180
 [FAcd]z/(f/ [Aca])z/(c/ [DF=B])z/(d/ !^![Gg]2) | !^![Dd]3 !tenuto![Ff] !^![Aa]3 !tenuto![Cc] | %182
 !^!=B3 !tenuto![Dd] !^![Gg]3 .[DFGB] | %183
"_stringendo"!8va(!{abc'} ([ad']>.f') ([c'a']>.c')!8va)! ([f=b]>.d') ([af']>.a) | %184
 ([dg]>.=b) ([fd']>.f) ([ce]>.g) ([db]>.^c) | ([Ad]>.f) ([ca]>.c) ([F=B]>.d) ([Af]>.A) | %186
 (3.G.A.=A (3.[=B,=B].[Cc].[Dd] (3.[Ee].[Ff].[^F^f] (3.[Gg].[_Aa].[_Bb] | %187
{/c'} .[CEc] z !>![DAB]2 .[CEc] z !>![DAB]2 | .[CEc] z !>![DAB]2 .[CEc] z !>![DAB]2 | %189
!<(! [CEc]/!8va(!(d'/4e'/4f'/4g'/4=a'/4=b'/4!<)!!fff! c''/)!8va)!!>!e/!>!c/!>!G/ (7:4:7(!>!c/B/A/G/F/E/D/ C) .[cgc'] | %190
 z2 !fermata!C6 |] %191
V:2
 z2 .[C,,C,]2 z2 .[C,,C,]2 | z .C,, z .C,, z2 z .C,, | z2 .[C,,C,]2 z2 .[C,,C,]2 | %3
 z .C,, z .C,, z2 z .C,, | z2 .[C,,C,]2 z2 .[C,,C,]2 | z .C,, z .C,, z2 z .C,, | %6
 z2 .[C,,C,]2 z2 .[C,,C,]2 | z .C,, z .C,, z2 z .C,, | .C,2 .[C,,C,]2 .C,2 .[C,,C,]2 | %9
 .C,.[C,,C,].D,.[C,,C,] (^C,2 .D,).[C,,=C,] | .C,2 .[C,,C,]2 .C,2 .[C,,C,]2 | %11
 .C,.[C,,C,].E,.[C,,C,] (B,,2 .C,).[C,,C,] | .D,2 .[C,,C,]2 .D,2 .[C,,C,]2 | %13
 .D,.[C,,C,].C,.[C,,C,] (^C,2 .D,).[C,,=C,] | .C,2 .[C,,C,]2 .C,2 .[C,,C,]2 | %15
 .C,.[C,,C,] z .[C,,C,] z2 z .[C,,C,] | z2 .[C,,C,]2 z2 .[C,,C,]2 | z2 .[C,,C,]2 z2 .[C,,C,]2 | %18
 !>![C,,C,]/C,/C,/ z/ !^![A,,E,C]2 [G,,G,] z [C,C] z | %19
 [A,,A,] z [B,,B,] z !>![E,,E,]!>![F,,F,]!>![G,,G,] z | %20
 !>!E,/E,/E,/ z/ !^![C,G,E]2 [B,,B,] z [E,,E,] z | %21
 [C,C] z [D,,D,] z !>![G,,G,]!>![=A,,=A,]!>![=B,,=B,] z | %22
 !>![C,,C,]/C,/C,/ z/ !^![A,,E,C]2 [G,,G,] z [C,C] z | %23
 [A,,A,] z [B,,B,] z !>![E,,E,]!>![F,,F,]!>![G,,G,] z | %24
 !>!E,/E,/E,/ z/ !^![=B,,^F,^D]2 [^A,,^A,] z [^D,,^D,] z | %25
 [=B,,,=B,,] z [^C,,^C,] z [^F,,^F,] z z [^E,,^E,] | .[^F,,^F,]2 z [^E,,^E,] .[F,,F,]2 z [E,,E,] | %27
 ([^F,,^F,]3 [=F,,=F,]) ([=E,,=E,]3 [_E,,_E,]) | %28
 ([D,,D,]3 [_D,,_D,]) !tenuto![C,,C,]!tenuto![B,,,B,,]([A,,,A,,][G,,,G,,]) | %29
{C,D,} .[C,E,G,]2 .[C,,C,]2{C,D,} .[C,E,G,]2 .[C,,C,]2 | %30
{C,D,} .[C,E,G,].C,,!>![D,F,B,].C,, .[^C,=E,B,]2 .[D,F,A,].C,, | %31
{C,D,} .[C,E,G,]2 .[C,,C,]2{C,D,} .[C,E,G,]2 .[C,,C,]2 | %32
{C,D,} .[C,E,G,].C,,!>![E,A,C].C,, .[B,,D,B,]2 .[C,E,A,].C,, | %33
{D,E,} .[D,F,G,]2 .[C,,C,]2{D,E,} .[D,F,G,]2 .[C,,C,]2 | %34
{D,E,} .[D,F,G,].C,,!>![C,E,B,].C,, .[^C,=E,B,]2 .[D,F,A,].C,, | %35
{C,D,} .[C,E,G,]2 .[C,,C,]2{C,D,} .[C,E,G,]2 .[C,,C,]2 | %36
{C,D,} .[C,E,G,].C,, (3.D.C.B, (3.A,.G,.F, (3.G,.A,.G, | !>![C,E,G,]2 !>![C,,C,]4 !>!G,,2 | %38
 [C,,C,] z"_trem." !//-![G,B,] E !//-![A,C] E !//-![B,D] F | !>![C,E,G,]2 !>![C,,C,]4 !>!G,,2 | %40
 [C,,C,] z"_trem." !//-![A,C] E !//-![B,D] F !//-![CE] A | !>![G,DF]2 !>![C,,C,]4 !>!G,,2 | %42
 [C,,C,] z"_trem." !//-![G,B,] E !//-![A,C] E !//-![B,D] F | !>![G,CE]2 !>![C,,C,]4 !>![B,,,B,,]2 | %44
 [A,,,A,,] z (3.A,.G,.F, (3.E,.D,.E, (3.F,.G,.F, | %45
 !>![C,E,G,]2 !>![G,CE]2 !>![B,,,B,,]2 !>![G,CE]2 | %46
 [A,,,A,,] z (3.[A,,A,].[G,,G,].[F,,F,] (3.[E,,E,].[D,,D,].[E,,E,] (3.[F,,F,].[G,,G,].[F,,F,] | %47
 !>![C,,C,]3 z !>![B,,,B,,]3 z | !>![A,,,A,,]2 [A,,F,]2 !^![F,,D,]2 !^![G,,D,]2 | %49
 (3.[C,,C,].[D,,D,].[E,,E,] (3.[F,,F,].[E,,E,].[D,,D,] (3.[C,,C,].[D,,D,].[E,,E,] (3.[F,,F,].[E,,E,].[D,,D,] | %50
 (3.[C,,C,].[D,,D,].[E,,E,] (3.[F,,F,].[E,,E,].[D,,D,] (3.[C,,C,].[D,,D,].[E,,E,] (3.[F,,F,].[E,,E,].[D,,D,] | %51
 .[C,,C,] z[K:treble] !>!c/!>!G/!>!E/!>!C/[K:bass] (!>!E,/C,/G,,/E,,/ !wedge!C,,) z | %52
 !>![C,,C,]2 z2 z4 ||[K:Ab] z2 .[E,,G,]2 .[F,,A,]2 .[G,,B,]2 | .[A,,C]2 .[B,,D]2 .[C,E]2 .[A,,C]2 | %55
 .A,2 (F,2 .D) z (B,2 | .E) z .D2 .C2 .B,2 | .[F,,A,]2 .[A,,A,]2 .[G,,G,]2 .[E,,E,]2 | %58
 .[A,,A,]2 .[G,E]2 .[F,=D]2 .[E,C]2 | [=D,B,] z ([C,A,]2 [B,,F,]) z ([A,,=D]2 | %60
 .G,,2) .^F,,2 .G,,2 .=F,,2 | .E,,2 .[E,,G,]2 .[F,,A,]2 .[G,,B,]2 | %62
 .[A,,C]2 .[B,,D]2 .[C,E]2 .[A,,C]2 | .A,2 (F,2 .D) z (B,2 | .E) z .D2 .C2 .B,2 | %65
 .[F,,A,]2 .[A,,A,]2 .[G,,G,]2 .[E,,E,]2 | .[A,,A,]2 .[G,E]2 .[F,=D]2 .[E,C]2 | %67
 [=D,B,] z ([C,A,]2 [B,,F,]) z ([A,,=D]2 | G,,) z .[E,,E,]2 !tenuto![D,,D,]2 .[E,,E,]2 | %69
 A,4 G,3 E, | [A,,F,]4 [G,,E,]4 | G,4 B,3 G,- | G,2 ^F,2 G,4 | .[A,,A,]2 .A,,2 .G,,2 .[G,,G,]2 | %74
 .[F,,F,]2 .F,,2 .E,,2 .[E,,E,]2 | =D,4 =A,2 F,2 | (!>!A,2 F,2) z4 | %77
 [C,A,]2[K:treble] [ea]2[K:bass] [B,,G,]2[K:treble] g2 | %78
[K:bass] [A,,F,]2[K:treble] [=df]2[K:bass] [G,,E,]2[K:treble] [eg]2 | %79
[K:bass] [C,G,]2[K:treble] [e=ae']2[K:bass] [B,,B,]2[K:treble] [ebe']2 | %80
[K:bass] [C,G,]2[K:treble] [^fe']2[K:bass] [B,,G,]2[K:treble] [g=d']2 | %81
[K:bass] .[A,,A,]2 .A,,2 .G,,2 .[G,,G,]2 | .[F,,F,]2 .F,,2 .E,,2 .[E,,E,]2 | .=D,2 z2 (=A,2 F,2) | %84
 (A,2 F,>)G, .A,.B,.=D.F | z2 .[E,,G,]2 .[F,,A,]2 .[G,,B,]2 | .[A,,C]2 .[B,,D]2 .[C,E]2 .[A,,C]2 | %87
 A, z (F,2 D) z (B,2 | E) z .D2 .C2 .B,2 |{/A,} .F,,2 .[A,,A,]2 .[G,,G,]2 .[E,,E,]2 | %90
 .[A,,A,]2 .[G,E]2 .[F,D]2 .[E,C]2 | .[D,B,]2 .[C,A,]2 .[B,,G,]2 .[A,,F,]2 | %92
 !tenuto![G,,=D,]2 .G,,2 !tenuto![G,,D,]2 .G,,2 | %93
 !tenuto![G,,=B,,G,]2 .[G,,C,]2 .[G,,D,]2 .[G,,=D,]2 ||[K:Eb] .C,2 .[C,,C,]2 .C,2 .[C,,C,]2 | %95
 .C,.[C,,C,].D,.[C,,C,] (^C,2 .D,).[C,,=C,] | .C,2 .[C,,C,]2 .C,2 .[C,,C,]2 | %97
 .C,.[C,,C,].E,.[C,,C,] (B,,2 .C,).[C,,C,] | .D,2 .[C,,C,]2 .D,2 .[C,,C,]2 | %99
 .D,.[C,,C,].C,.[C,,C,] (^C,2 .D,).[C,,=C,] | .C,2 .[C,,C,]2 .C,2 .[C,,C,]2 | %101
 .C,.[C,,C,] z .[C,,C,] z2 z .[C,,C,] | z2 .[C,,C,]2 z2 .[C,,C,]2 | z2 .[C,,C,]2 z2 .[C,,C,]2 | %104
 !>![C,,C,]/C,/C,/ z/ !^![A,,E,C]2 [G,,G,] z [C,C] z | %105
 [A,,A,] z [B,,B,] z !>![E,,E,]!>![F,,F,]!>![G,,G,] z | %106
 !>!E,/E,/E,/ z/ !^![C,G,E]2 [B,,B,] z [E,,E,] z | %107
 [C,C] z [D,,D,] z !>![G,,G,]!>![=A,,=A,]!>![=B,,=B,] z | %108
 !>![C,,C,]/C,/C,/ z/ !^![A,,E,C]2 [G,,G,] z [C,C] z | %109
 [A,,A,] z [B,,B,] z !>![E,,E,]!>![F,,F,]!>![G,,G,] z | %110
 !>!E,/E,/E,/ z/ !^![=B,,^F,^D]2 [^A,,^A,] z [^D,,^D,] z | %111
 [=B,,,=B,,] z [^C,,^C,] z [^F,,^F,] z z [^E,,^E,] | .[^F,,^F,]2 z [^E,,^E,] .[F,,F,]2 z [E,,E,] | %113
 ([^F,,^F,]3 [=F,,=F,]) ([=E,,=E,]3 [_E,,_E,]) | %114
 ([D,,D,]3 [_D,,_D,]) !tenuto![C,,C,]!tenuto![B,,,B,,]([A,,,A,,][G,,,G,,]) | %115
{C,D,} .[C,E,G,]2 .[C,,C,]2{C,D,} .[C,E,G,]2 .[C,,C,]2 | %116
{C,D,} .[C,E,G,].C,,!>![D,F,B,].C,, .[^C,=E,B,]2 .[D,F,A,].C,, | %117
{C,D,} .[C,E,G,]2 .[C,,C,]2{C,D,} .[C,E,G,]2 .[C,,C,]2 | %118
{C,D,} .[C,E,G,].C,,!>![E,A,C].C,, .[B,,D,B,]2 .[C,E,A,].C,, | %119
{D,E,} .[D,F,G,]2 .[C,,C,]2{D,E,} .[D,F,G,]2 .[C,,C,]2 | %120
{D,E,} .[D,F,G,].C,,!>![C,E,B,].C,, .[^C,=E,B,]2 .[D,F,A,].C,, | %121
{C,D,} .[C,E,G,]2 .[C,,C,]2{C,D,} .[C,E,G,]2 .[C,,C,]2 | %122
{C,D,} .[C,E,G,].C,, (3.D.C.B, (3.A,.G,.F, (3.G,.A,.G, | !>![C,E,G,]2 !>![C,,C,]4 !>!G,,2 | %124
 [C,,C,] z"_trem." !//-![G,B,] E !//-![A,C] E !//-![B,D] F | !>![C,E,G,]2 !>![C,,C,]4 !>!G,,2 | %126
 [C,,C,] z"_trem." !//-![A,C] E !//-![B,D] F !//-![CE] A | !>![G,DF]2 !>![C,,C,]4 !>!G,,2 | %128
 [C,,C,] z"_trem." !//-![G,B,] E !//-![A,C] E !//-![B,D] F | !>![G,CE]2 !>![C,,C,]4 !>![B,,,B,,]2 | %130
 [A,,,A,,] z (3.A,.G,.F, (3.E,.D,.E, (3.F,.G,.F, | %131
 !>![C,E,G,]2 !>![G,CE]2 !>![B,,,B,,]2 !>![G,CE]2 | %132
 [A,,,A,,] z (3.[A,,A,].[G,,G,].[F,,F,] (3.[E,,E,].[D,,D,].[E,,E,] (3.[F,,F,].[G,,G,].[F,,F,] | %133
 !>![C,,C,]3 z !>![B,,,B,,]3 z | !>![A,,,A,,]2 [A,,F,]2 !^![F,,D,]2 !^![G,,D,]2 | %135
 (3.[C,,C,].[D,,D,].[E,,E,] (3.[F,,F,].[E,,E,].[D,,D,] (3.[C,,C,].[D,,D,].[E,,E,] (3.[F,,F,].[E,,E,].[D,,D,] | %136
 (3.[E,,E,].[F,,F,].[G,,G,] (3.[A,,A,].[G,,G,].[F,,F,] (3.[E,,E,].[F,,F,].[G,,G,] (3.[A,,A,].[G,,G,].[F,,F,] | %137
 (3.[G,,G,].[=A,,=A,].[=B,,=B,] (3.[C,C].[B,,B,].[A,,A,] (3.[G,,G,].[A,,A,].[B,,B,] (3.[C,C].[B,,B,].[A,,A,] | %138
 (3.[G,,G,].[=A,,=A,].[=B,,=B,] (3.[C,C].[B,,B,].[A,,A,] (3.[G,,G,].[A,,A,].[B,,B,] (3.[C,C].[D,D].[E,E] | %139
 .[D,D] z[K:treble] !>!=B/!>!G/!>!D/!>!=B,/[K:bass] (!>!=B,,/G,,/D,,/=B,,,/ G,,,) z || %140
[K:C] !>!G,2 .[G,,G,B,]2 .[A,,A,C]2 .[B,,B,D]2 | .[C,CE]2 .[D,DF]2 .[E,EG]2 .[C,CE]2 | %142
 .[A,,A,C]2 .[C,A,E]2 .[D,A,F]2 .[B,,D,D]2 | .[E,G,G]2 .[D,G,F]2 .[C,G,E]2 .[B,,G,D]2 | %144
 .[A,,A,C]2 .[C,CE]2 .[B,,B,D]2 .[G,,G,B,]2 | .[C,CE]2 .[B,,B,C]2 .[A,,A,C]2 .[G,,G,C]2 | %146
 [^F,,^F,] z ([E,,E,]2 [D,,D,]) z .[C,,C,]2 | %147
 .[B,,,B,,]2 !tenuto![G,,G,B,]2 !tenuto![F,,F,A,]2 !tenuto![G,,G,B,]2 | [E,,E,]4 [D,,D,]4 | %149
 [C,,C,]2"_trem." !///-!C,, C, !///-!B,,,2 B,,2 | [E,,E,]4 [D,,D,]4 | %151
 [E,,E,]2"_trem." !///-!E,, E, !///-!D,,2 D,2 | .[C,C]2 .[C,,C,]2 .[B,,,B,,]2 .[B,,B,]2 | %153
 .[A,,A,]2 .[A,,,A,,]2 .[G,,,G,,]2 .[G,,G,]2 | ^F,3 z E,3 z | [D,,D,]4- [D,,D,] z z2 | %156
 !>!G,2 !>![G,,G,B,]2 !>![A,,A,C]2 !>![B,,B,D]2 | !>![C,C]2 !>![D,DF]2 !>![E,EG]2 !>![C,CE]2 | %158
 [A,,E,] z !>![C,,C,]2 !>![D,,D,]2 !>![B,,,B,,D,]2 | %159
 !>![E,,E,]2 !>![D,,D,]2 !>![C,,C,]2 !>![B,,,B,,]2 | %160
 !>![A,,,A,,C,]2 !>![C,,C,]2 !>![B,,,G,,B,,]2 !>![G,,,G,,]2 | %161
 !>![C,,C,E,]2 !>![B,,B,]2 !>![A,,A,]2 !>![G,,G,]2 ||[K:Eb] [F,A,C]2 .F,,2 [F,A,C]2 .F,,2 | %163
 [F,A,C] z .[D,A,C]2 .[D,A,C]2 .[E,A,C]2 | [F,A,C]2 .F,,2 [F,A,C]2 .F,,2 | %165
 [F,A,C] z .[D,A,C]2 .[E,A,C]2 .[F,A,C]2 | [_G,A,C]2 ._G,,2 [G,A,C]2 .G,,2 | %167
 [_G,A,C] z ._G,,2 .[E,A,C]2 .G,,2 | [_G,A,C]2 ._G,,2 [G,A,C]2 .G,,2 | %169
 [_G,A,C] z .[E,A,C]2 .[F,A,C]2 .[G,A,C]2 | [G,,G,]2 [A,,A,]2 [=A,,=A,]2 [B,,B,]2 | %171
 [=A,,=A,]2 [_A,,_A,]2 [G,,G,]2 ([_G,,_G,][F,,F,]) | [=E,,=E,]2 [D,,D,]2 [E,,E,]2 [F,,F,]2 | %173
 [^F,,^F,]2 [G,,G,]2 [A,,A,]2 (3!tenuto![=A,,=A,]!tenuto![B,,B,]!tenuto![=B,,=B,] | %174
 !tenuto![C,C]2 !tenuto![^C,^C]2 !tenuto![D,D]2 (3!tenuto![=E,=E]!tenuto![D,D]!tenuto![E,E] | %175
 (3!tenuto![F,F]!tenuto![=E,=E]!tenuto![F,F] (3!tenuto![G,G]!tenuto![F,F]!tenuto![G,G] !tenuto![A,A]!tenuto![F,F]!tenuto![C,C]!tenuto![A,,A,] | %176
 [F,A,D] z [E,A,CE] z [D,G,D] z [G,,G,] z | %177
 !tenuto![C,,C,]2 !tenuto![^C,,^C,]2 !tenuto![D,,D,]2 (3.[=E,,=E,].[D,,D,].[E,,E,] | %178
 (3.[F,,F,].[=E,,=E,].[F,,F,] (3.[G,,G,].[F,,F,].[G,,G,] !tenuto![A,,A,]!tenuto![F,,F,]!tenuto![C,,C,]!tenuto![A,,,A,,] | %179
 [F,,F,] z [E,A,CE] z [D,G,D] z !^![G,,G,]2 | [F,,F,] z [E,,E,] z [D,,D,] z !^![G,,G,]2 | %181
 [F,A,]3 z [E,A,C]3 z | [D,G,=B,D]3 z z2 z .[G,,G,B,] | %183
[K:treble]{/F,} (3.[FAd].[FAd].[FAd] (3.[EAc].[EAc].[EAc] (3.[DF=B].[DFB].[DFB] (3.[CAc].[CAc].[CAc] | %184
 (3.[=B,DG].[B,DG].[B,DG] (3.[A,CF].[A,CF].[A,CF] [G,CG] z[K:bass] [F,A,D][=E,G,^C] | %185
 (3.[F,,D,F,].E,.=E, (3.[_E,F,].G,.A, (3.[D,=A,].=B,.C (3.[C,CD].[D,DE].[C,CF] | %186
 (3.[=B,,G,=B,].[C,A,C].[B,,=A,B,] (3.[A,,_A,].[_B,,_B,].[A,,A,] (3.[G,,G,].[A,,A,].[G,,G,] (3.[F,,F,].[G,,G,].[F,,F,] | %187
 (C,/^C,/D,/E,/) (F,/=E,/_E,/D,/) (=C,/^C,/D,/E,/) (F,/=E,/_E,/D,/) | %188
 (C,/^C,/D,/E,/) (F,/=E,/_E,/D,/) (=C,/^C,/D,/E,/) (F,/=E,/_E,/D,/) | %189
 [C,,C,] z[K:treble] !>!c/!>!G/!>!E/!>!C/[K:bass] (!>!C,/A,,/G,,/E,,/ C,,) .E | %190
 z2"_trem." !////-!!fermata!C,,3 !fermata!C,3 |] %191
V:3
 x8 | x8 | x8 | x8 | x8 | x8 | x8 | x8 |[K:treble] x8 | x8 | x8 | x8 | x8 | x8 | x8 | %15
 x4[K:bass] x4 | x8 | x8 |[K:treble] x8 | x8 | x8 | x8 | x8 | x8 | x8 | x8 | x8 | x6 =A=G | %28
 ^F3 =F =EG F2 | x8 | x8 | x8 | x8 | x8 | x8 | x8 | x8 | x8 | x8 | x8 | x8 | x8 | x8 | x8 | x8 | %45
 x8 | x8 | x8 | (!>![A^c]2 [Ad]2) !^![FA]2 !>!GF | x8 | x8 | x/!8va(! x2!8va)! x11/2 | x8 || %53
[K:Ab] x8 | x8 | x8 | x8 | .A2 .c2 .B2 .G2 | .A2 .e2 .=d2 .[cf]2 | A z (F2 A) z (B2 | %60
 [EB]) z .=A2 .B2!p! ._A2 | x8 | x8 | x8 | x8 | .A2 .c2 .B2 .G2 | .A2 .e2 .=d2 .[cf]2 | %67
 A z (F2 A) z B2 | [EB] z .G2 !tenuto!F2 .G2 | E8- | E2 =D2 E4 | E4- E3 G- | G2 ^F2 G4 | %73
 (C2 =D2 E2 B,2) | (A,2 B,2 =B,2 C2- | C2 B,2) F3 F | [FA]4 [=DF]3 z | E8- | E2 =D2 E4 | E8- | %80
 E2 ^F2 G4 | (C2 =D2)!>(! (E2 B,2) | (A,2 B,2) =B,2 C2- | C2 B,2!>)! E4 | %84
 ([EF]2 [=DA]) z (F2 A) z | x8 | x8 | x8 | x8 | .A2 .c2 .B2 .G2 | .A2 .e2 .d2 .c2 | %91
 .F2 .A2 .D2 .F2 | x8 | x8 ||[K:Eb] x8 | x8 | x8 | x8 | x8 | x8 | x8 | x4[K:bass] x4 | x8 | x8 | %104
[K:treble] x8 | x8 | x8 | x8 | x8 | x8 | x8 | x8 | x8 | x6 =A=G | ^F3 =F =EG F2 | x8 | %116
!8va(! x3!8va)! x5 | x8 |!8va(! x3!8va)! x5 | x8 | x8 | x8 | x8 | x8 | x8 | x8 | x8 | x8 | x8 | %129
 x8 | x8 | x8 | x8 | x8 | (!>![A^c]2 [Ad]2) !^![FA]2 !>!GF | x8 | x8 | x8 | x8 | %139
 x/!8va(! x2!8va)! x11/2 ||[K:C] !^!G8 | .c2 .[cf]2 .[cg]2 .[ce]2 | E z A2- A z d2 | %143
 z2 .[Gf]2 .[Ge]2 .[Gd]2 | .[Fc]2 .[Fe]2 .[Fd]2 .[FB]2 | .c2 .[cg]2 .[c^f]2 .[ce]2 | %146
 [CD] z A2- A z .[d^f]2 | .G2 !tenuto!B2 !tenuto!A2 !tenuto!B2 | [EG]4 B3 G- | G2 ^F2 G4 | G4 B4- | %151
 B2 [^A^c]2 B4 | E2 ^F2 G2 D2 | C2 D2 ^D2 E2- | E2 D2 ^C2 z2 | c4 [^FA]3 z | x8 | %157
 x4!8va(! x4!8va)! | C z A,2- A, z D2 |[K:bass] G,2 [G,B,F]2 [G,CE]2 [G,D]2 | %160
 [A,C]2 [F,E]2 [F,D]2 [G,B,]2 |[K:treble] C2 [CG]2 [CF]2 [CE]2 ||[K:Eb] x8 | x8 | %164
 x2!8va(! x3!8va)! x3 | x8 | x8 | x8 | x2!8va(! x3!8va)! x3 | x8 | x8 | x6 [C_E][=B,D] | x8 | x8 | %174
 x8 | .[Ac] z .[B=e] z!fff!!>(! .[cf] z z2!>)! | x8 | x8 | %178
 .[Ac] z .[B=e] z!fff!!>(! .[cf] z z2!>)! | x8 | x8 | x8 | x8 |!8va(! x4!8va)! x4 | x8 | x8 | x8 | %187
 x8 | x8 | x/!8va(! x2!8va)! x5 | x8 |] %191
V:4
 x8 | x8 | x8 | x8 | x8 | x8 | x8 | x8 | x8 | x8 | x8 | x8 | x8 | x8 | x8 | x8 | x8 | x8 | x8 | %19
 x8 | x8 | x8 | x8 | x8 | x8 | x8 | x8 | x8 | x8 | x8 | x8 | x8 | x8 | x8 | x8 | x8 | x8 | x8 | %38
 x8 | x8 | x8 | x8 | x8 | x8 | x8 | x8 | x8 | x8 | x8 | x8 | x8 | x2[K:treble] x2[K:bass] x4 | %52
 x8 ||[K:Ab] x8 | x8 | .F,,2 .A,,2 .B,,2 .G,,2 | .C,2 .B,,2 .A,,2 .G,,2 | x8 | x8 | x8 | x8 | x8 | %62
 x8 | .F,,2 .A,,2 .B,,2 .G,,2 | .C,2 .B,,2 .A,,2 .G,,2 | x8 | x8 | x8 | x8 | C,4 B,,4 | x8 | %71
 C,4 B,,4 | C,4 B,,4 | x8 | x8 | =D,,4 C,4 | !>!B,,4 z4 | x2[K:treble] x2[K:bass] x2[K:treble] x2 | %78
[K:bass] x2[K:treble] x2[K:bass] x2[K:treble] x2 | %79
[K:bass] x2[K:treble] x2[K:bass] x2[K:treble] x2 | %80
[K:bass] x2[K:treble] x2[K:bass] x2[K:treble] x2 |[K:bass] x8 | x8 | .=D,,2 z2 C,4 | B,,6 z2 | x8 | %86
 x8 | .F,,2 .A,,2 .B,,2 .G,,2 | .C,2 .B,,2 .A,,2 .G,,2 | x8 | x8 | x8 | x8 | x8 ||[K:Eb] x8 | x8 | %96
 x8 | x8 | x8 | x8 | x8 | x8 | x8 | x8 | x8 | x8 | x8 | x8 | x8 | x8 | x8 | x8 | x8 | x8 | x8 | %115
 x8 | x8 | x8 | x8 | x8 | x8 | x8 | x8 | x8 | x8 | x8 | x8 | x8 | x8 | x8 | x8 | x8 | x8 | x8 | %134
 x8 | x8 | x8 | x8 | x8 | x2[K:treble] x2[K:bass] x4 ||[K:C] x8 | x8 | x8 | x8 | x8 | x8 | x8 | %147
 x8 | x8 | x8 | x8 | x8 | x8 | x8 | ^F,,3 z E,,2 A,2 | x8 | x8 | x8 | x8 | x8 | x8 | x8 || %162
[K:Eb] x8 | x8 | x8 | x8 | x8 | x8 | x8 | x8 | x8 | x8 | C,/C,/C, x2 x4 | x8 | x8 | x8 | x8 | x8 | %178
 x8 | x8 | x8 | x8 | x8 |[K:treble] x8 | x6[K:bass] x2 | x8 | x8 | C,, z F,, z C,, z F,, z | %188
 C,, z F,, z C,, z F,, z | x2[K:treble] x2[K:bass] x4 | x8 |] %191

